X:1
T:Title
%%score { 1 | 2 }
L:1/8
M:4/4
K:C
V:1 treble nm="Grand Piano"
V:2 bass 
V:1
 z4 z2[Q:1/4=100] [CE][DF] | [EG]3 [EG] [EG]2 [EG]2 | [FA]2 [EG]4 [CE][EG] | %3
 [Ec]3 [Ec] [Ec]2 [Ec]2 | [Fd]2 [Ec]4 [Ec][Fd] | [Ge]3 [Ec] [Fc]2 [Gc]2 | [Fc]2 [FA]4 [GA]2 | %7
 [^Fd]3 [Fd] [Fd] [Fd]3 |[M:3/4] [Fd]6 |[M:1/4] [FG]2 |[M:4/4] [Ec]3 [Ec] [Ec] [Ec]3 | %11
 [Ec]6 [Ec]2 | [Fc]3 [Fc] [Fc] [Fc]3 | [_Ec]6 [C^Fc]2 | [CGe]3 [CEG] [Gd]3 [GB] | %15
 [Gc]2 [Ac]2 c3 A | G3 G [B,FG] [B,FG]3 |[M:3/4] [CEG]6 |] %18
V:2
 z4 z2 [C,G,][C,G,] | [C,C]3 [C,C] [C,C]2 [C,C]2 | [C,C]2 [C,C]4 [C,G,][C,C] | %3
 [C,G,]3 [C,G,] [C,G,]2 [C,G,]2 | [C,^G,]2 [C,=G,]4 [C,G,][C,G,] | [C,C]3 [C,G,] [D,G,]2 [E,_B,]2 | %6
 [F,A,]2 [F,C]4 [E,^C]2 | [D,C]3 [D,C] [D,C] [D,C]3 |[M:3/4] [G,,G,B,]6 |[M:1/4] [G,B,]2 | %10
[M:4/4] [C,G,]3 [C,G,] [C,G,] [C,G,]3 | [_B,,G,]6 [B,,G,]2 | [A,,F,]3 [A,,F,] [A,,F,] [A,,F,]3 | %13
 [^G,,^F,]6 G,,2 | G,,3 G, [F,B,]3 [F,D] | [E,C]2 [F,C]2 [^F,A,_E]3 [F,CE] | %16
 [G,CE]3 [G,CE] G,, G,,3 |[M:3/4] C,6 |] %18

